X:1
T:Andante in D
T:Andante in D
T:K. 15o
T:W. A. Mozart
C:W. A. Mozart
%%score { ( 1 3 ) | 2 }
L:1/8
Q:1/4=58
M:2/4
K:D
V:1 treble nm="Piano" snm="Pno."
V:3 treble 
V:2 bass 
V:1
"^Andante" A | d/4A/4B/4c/4 d/4e/4f/4g/4 a/4f/4e/4d/4 b/4g/4f/4e/4 | %2
 d/4A/4B/4c/4 d/4e/4f/4g/4 a/4f/4e/4d/4 b/4g/4f/4e/4 | %3
 a/4f/4e/4d/4 d/4c/4e/4g/4 g/4f/4a/4d/4 d/4c/4e/4g/4 | %4
 f/4e/4d/ z/4 A/4d/4f/4 f/4e/4d/4e/4 e/4d/4c/4d/4 | %5
 c/4B/4A/ z/4 E/4A/4c/4 c/4B/4d/4c/4 c/4B/4B/4A/4 | %6
 ^G/4F/4E/ z/4 E/4A/4c/4 c/4B/4B/ z/4 B/8c/8d/4d/4 | %7
 d/4c/4c/ z/4 E/4A/4c/4 c/4B/4B/ z/4 B/8c/8d/4d/4 | d/4c/4c/ z/4 E/4A/4c/4 c/4B/4d/4B/4 A/T^G/ | %9
 A z/4 E/4A/4c/4 c/4B/4B/ z/4 B/8c/8d/4d/4 | d/4c/4c/ z/4 E/4A/4c/4 c/4B/4B/ z/4 B/8c/8d/4d/4 | %11
 d/4c/4c/ z/4 E/4A/4c/4 c/4B/4d/4B/4 A/^G/ | [Ae]/[Af]/ e/4d/4c/4B/4 [Ae]/[Af]/ e/4d/4c/4B/4 | %13
 [CEA]3 :: E | A/4E/4F/4^G/4 A/4B/4c/4d/4 e/4c/4B/4A/4 f/4d/4c/4d/4 | %16
 [ce=g]/[ceg]/[df]/[fd']/ [df]/[ce]/ z/ A/ | d/4A/4B/4c/4 d/4e/4f/4g/4 a/4f/4e/4d/4 b/4g/4f/4e/4 | %18
 a/4g/4f/4e/4d/4=c/4B/4A/4 B/4A/4G/ z/4 G/4B/4g/4 | %19
 b/4a/4^g/4f/4e/4d/4c/4B/4 c/4B/4A/ z/4 A/4d/4f/4 | %20
 f/4e/4e/ z/4 e/8f/8g/4g/4 g/4f/4f/ z/4 A/4d/4f/4 | %21
 f/4e/4e/ z/4 e/8f/8g/4g/4 g/4f/4f/ z/4 A/4d/4f/4 | f/4e/4g/4e/4 d/c/ a/b/ a/4g/4f/4e/4 | %23
 a/b/ a/4g/4f/4e/4 [FAd]2 :| %24
V:2
 z | D,2 F,G, | F,2 F,G, | F,E,D,E, | D,F,G,^G, | A,C,D,^D, | E,/D,/C, D,F, | E,C,D,F, | %8
 E,C,D,E,/E,,/ | A,,C, D,F, | E,C, D,F, | E,C, D,/F,/E,/E,,/ | C,/D,/E, C,/D,/E, | A,E,A,, :: z | %15
 A,2 C/A,/D/^G,/ | A,/A,/F,/D,/ A,/A,,/ z | D,2 F,G, | F,2 G,2 | ^G,2 A,/=G,/F, | G,B,A,F, | %21
 G,B,A,F, | G,A,/A,,/ F,/G,/A, | F,/G,/A, [D,F,A,D]2 :| %24
V:3
 x | x4 | x4 | x4 | x4 | x4 | x4 | x4 | x2 F x | x4 | x4 | x2 F/D/ E/4C/4D/4B,/4 | x4 | x3 :: x | %15
 x4 | x4 | x4 | x4 | x4 | x4 | x4 | x2 dc | dc x2 :| %24

